X:609
T:Miss Betty Hunter
R:Reel
B:The Athole Collection
M:C|
L:1/8
K:C
f|edcB c2Gc|AcGc EDDf|edcB c2Gc|AcGc ECC:|
F|ECEG cGAF|ECEG FDDF|ECEG cGAF|EcDF ECCF|
ECEG cGAF|ECEG FDDF|ECEG cdec|defd ec~c||

